!!!!SEGMENT: pl-wnifc--13846--128_anonim--128-zabyw-tato-sojku.krn
!!!kernsource:
!!!cenid: 18xx:3350
!!!COM: Anonim
!!!COM-rismid: pe30004985
!!!CDT:
!!!CNT:
!!!GTL: Pieśni polskie i ruskie ludu galicyjskiego
!!!OTL: 128. Żabyw tato sojku
!!!PDT: 1833
!!!AGN:
!!!SMS-siglum: PL-Wnifc
!!!SMS-shelfmark: 13846
!!!SMS-shelfwork: 128 G
!!!SMS-variant:
!!!SMS-altvar:
!!!NIFC-rismid: 1001039635
!!!URL-scan: http://repozytorium.nifc.pl/skany/pl-wnifc-nut--13846
!!!ONB-nifc:
!!!OMD: Andantino
!!!key: D
**kern	**kern	**kern	**text
*part2	*part2	*part1	*part1
*staff3	*staff2	*staff1	*staff1
*I"Fortepian	*I"Fortepian	*I"Głos	*
*Ipiano	*Ipiano	*Ivox	*
*ICklav	*ICklav	*ICvox	*
*IGacmp	*IGacmp	*IGsolo	*
*clefF4	*clefG2	*clefG2	*
*k[f#c#]	*k[f#c#]	*k[f#c#]	*
*D:	*D:	*D:	*
*M2/4	*M2/4	*M2/4	*
*>[A,B,B]	*>[A,B,B]	*>[A,B,B]	*
=1	=1	=1	=1
*>A	*>A	*>A	*
!	!	!LO:TX:a:t=E.214.	!
*^	*	*	*
(>4r	(<2D\	8f#/L 8dd/	8d/	Ża-
.	.	8cc#\ 8ee\	8e/	-byw
4d/))	.	8dd\ 8ff#\	8f#/	ta-
.	.	8ee\J 8gg\	8g/	-to
=2	=2	=2	=2	=2
(>4r	(<2D\	8.ff#\L 8.aa\	8.a/L	soj-
.	.	16ee#X\Jk 16gg#X\	16g#X/Jk	.
4d/))	.	4ff#\ 4aa\	4a/	-ku,
=3	=3	=3	=3	=3
(>4r	(<2D\	8ggn\L 8bb\	8b/	za-
.	.	8gg\ 8bb\	8b/	-byw
4d/))	.	8gg\ 8bb\	8b/	ta-
.	.	8gg\J 8bb\	8b/	-to
!!LO:LB:g=original
=4	=4	=4	=4	=4
(>4r	(<2D\	8.ff#\L 8.aa\	(8.a/L	soj-
.	.	16ee#X\Jk 16gg#X\	16g#X/Jk)	.
4d/))	.	4ff#\ 4aa\	4a/	-ku,
=5!|:	=5!|:	=5!|:	=5!|:	=5!|:
*>B	*>B	*>B	*	*
8r	2DD/ 2D/	8b\L 8dd\ 8ggn\	8g/	za-
8G/L 8B/ 8d/	.	16b\L 16dd\ 16gg\	16g/	-by-
.	.	16b\JJ 16dd\ 16gg\	16g/	-ła
8G/ 8B/ 8d/	.	8b\L 8dd\ 8gg\ 8bb\	8b/	ma-
8G/J 8B/ 8d/	.	8b\J 8dd\ 8gg\	8g/	-ty,
!!LO:LB:g=original
=6	=6	=6	=6	=6
8r	2DD/ 2D/	8a\L 8dd\ 8ff#\	8f#/	za-
8F#/L 8A/ 8d/	.	16a\L 16dd\ 16ff#\	16f#/	-by-
.	.	16a\JJ 16dd\ 16ff#\	16f#/	-ły
8F#/ 8A/ 8d/	.	8a\L 8dd\ 8ff#\ 8aa\	8a/	di-
8F#/J 8A/ 8d/	.	8a\J 8dd\ 8ff#\	8f#/	-ty,
=7	=7	=7	=7	=7
8r	2DD/	8g\L 8cc#\ 8ee\	8e/	a
8D/L 8G/ 8A/ 8c#/	.	16g\L 16cc#\ 16ee\	8e/	wże
.	.	16g\JJ 16cc#\ 16ee\	.	.
8D/ 8G/ 8A/ 8c#/	.	8g\L 8cc#\ 8ee\ 8gg\	8g/	soj-
8D/J 8G/ 8A/ 8c#/	.	8g\J 8cc#\ 8ee\	8e/	-ci
!!LO:LB:g=original
=8	=8	=8	=8	=8
8r	2DD/	8f#\L 8a\ 8dd\	8d/	ne
8D/L 8F#/ 8A/ 8d/	.	8f#\ 8a\ 8dd\	8d/	włe-
8D/ 8F#/ 8A/ 8d/	.	8f#\ 8a\ 8dd\	8d/	-ti-
8D/J 8F#/ 8A/ 8d/	.	8a\J 8dd\ 8ff#\	8f#/	-ty,
=9	=9	=9	=9	=9
4D/ 4F#/ 4A/	4AA\	4ff#\ 4aa\	4a/	hej,
4C#/ 4E/ 4A/	4AA\	(16ee\LL 16gg\	(16g/LL	soj-
.	.	16dd\ 16ff#\	16f#/	.
.	.	16ee\) 16gg\	16g/JJ)	.
.	.	16ff#\JJ 16aa\	16a/	-ka
=10	=10	=10	=10	=10
4.F#/ 4.A/	4.D\	4.dd\ 4.ff#\	4.f#/	hej.
*v	*v	*	*	*
8r	8r	8r	.
!!LO:PB:g=original
=:|!	=:|!	=:|!	=:|!
*-	*-	*-	*-
!!!system-decoration: s1,{(s2,s3)}
!!!RDF**kern: < = below
!!!RDF**kern: > = above
!!!ENC: Marta Chmielewska
!!!END: 2021-11-11
